X: 26738
T: Mile Malachd Do 'n òl
R: waltz
M: 3/4
K: Cmajor
CC|C4CC|c4 cA|A2G4|E3D E2|A4 cA|G D3 E2|A4 G2|ED C2 CC||
C4CC|c4 cd|e3 d/c/ A2|G4 EG|A c3 c2|e4 dc|c2 AG G2|G4||

